X:1
T:Title
%%score 1 { 2 | 3 }
L:1/8
Q:1/4=110
M:2/4
K:G
V:1 treble nm="Grand Piano, Soprano"
V:2 treble nm="Choir Pad, Wealden, SM"
V:3 bass 
V:1
 [GB]4 | A2 [Ac]2 | [GB]2 [Gd]2 | [FA]4 | [GB]4 | G2 [GB]2 | [EA]2 [DF]2 | [DG]4 | [Ad]4 | %9
w: By~Anonymous,~1859|||||||||
 [GB]2 [Ge]2 | [Fd]2 [GB]2 | A2 [Fc]2 | [DB]4 | [EG]4 | E2 [Ec]2 | [DB]2 [CA]2 | [B,G]4- | %17
w: ||||||||
 [B,G]4 |] %18
w: |
V:2
 D4 | D2 D2 | D2 D2 | D4 | G,4 | B,2 D2 | C2 A,2 | B,4 | D4 | D2 C2 | A,2 G,2 | G,2 G,2 | G,4 | %13
 G,4 | G,2 G,2 | G,2 F,2 | G,4- | G,4 |] %18
V:3
 G,4 | F,2 D,2 | G,2 B,,2 | D,4 | z4 | E,2 B,,2 | C,2 D,2 | [G,,G,]4 | F,4 | G,2 C,2 | D,2 z2 | %11
 E,2 C,2 | z4 | E,4 | C,2 C,2 | D,2 D,2 | G,,4- | G,,4 |] %18

